X: 23
T:Blackberry Quadrille
% Nottingham Music Database
S:Kevin Briggs, via EF
M:6/8
K:D
P:A
f/2g/2|"D"a2a ba^g|"D"a2f d2f|"A7"e2c A2g|"D"fdB "A7"A2f/2g/2|
"D"a2a ba^g|"D"a2f d2f|"A7"e2c ABc|"D"d3 d2:|
P:B
c/2B/2|"D"A2B "A7"G2A|"D"F2A def|"Em"g2e "A7"cBc|"D"dfe "G"dcB|
"D"A2B "A7"G2A|"D"F2A def|"G"g2e "A7"cBc|"D"d3 d2:|<end>
<start>
